inbox-full-outline.svg

<svg fill="currentColor" viewBox="0 0 24 24"><path d="M19 3c1.1 0 2 .9 2 2v14c0 1.1-.9 2-2 2H5c-1.1 0-2-.9-2-2V5c0-1.1.9-2 2-2zM5 19h4.4a4.13 4.13 0 0 1-1.27-2H5zm14 0v-2h-3.13c-.22.78-.66 1.47-1.27 2zm0-4V5H5v10h5v1c0 2.67 4 2.67 4 0v-1zM7 7h10v2H7zm10 4v2H7v-2z"/></svg>

<svg  viewBox="0 0 24 24" fill="currentColor"><path  d="M19 3C20.1 3 21 3.9 21 5V19C21 20.1 20.1 21 19 21H5C3.9 21 3 20.1 3 19V5C3 3.9 3.9 3 5 3H19M5 19H9.4C8.79 18.47 8.35 17.78 8.13 17H5V19M19 19V17H15.87C15.65 17.78 15.21 18.47 14.6 19H19M19 15V5H5V15H10V16C10 18.67 14 18.67 14 16V15H19M7 7H17V9H7V7M17 11V13H7V11H17Z"/></svg>
